!!!COM: Haydn, Franz Joseph
!!!OTL: String Quartet in B-flat Major
!!!OPS: Opus 33
!!!ONM: No. 4
!!!OMD: Largo
!!!OMV: 3
!!!SCT: H III:40
!!!SCA: Thematisch-bibliographisches Werkevererzeichnis (A. van Hoboken)
!!!YOR: Trautwein Edition
!!!ENC: Frances Bennion
!!!CDT: 1732/3/31/-1809/5/31/
!!!CNT: Oesterreich
!!!YEC: Copyright (c) 1994, 2000 Center for Computer Assisted Research in the Humanities
!!!YEM: Rights to all derivative editions reserved.
!!!YEM: Refer to licensing agreement for further details.
!!!YEN: United States of America
**kern	**kern	**kern	**kern
*k[b-e-a-]	*k[b-e-a-]	*k[b-e-a-]	*k[b-e-a-]
*E-:	*E-:	*E-:	*E-:
*clefF4	*clefC3	*clefG	*clefG
*M3/4	*M3/4	*M3/4	*M3/4
4e-	4b-	8.ee-	8.gg
.	.	32dd	32ff
.	.	32ee-	32gg
8B-	8d	8ff	8aa-
8r	8r	8r	8r
8A-	8b-	8dd	8ff
8r	8r	8r	8r
=2	=2	=2	=2
4G	4b-	8.ee-	8.bb-
.	.	16g	16eee-
4F	4B-	2a-	8ddd
.	.	.	16ccc
.	.	.	16bb-
4B-	4d	.	8aa-
.	.	.	16gg
.	.	.	16ff
=3	=3	=3	=3
8c	8e-	8g	4ee-
8c	8e-	8g	.
8A-	8c	8cc	4ff
8A-	8c	8cc	.
8F	8A-	8cc	8.aa-
8F	8A-	8cc	.
.	.	.	32bb-
.	.	.	32ccc
=4	=4	=4	=4
4.B-	4.B-	4g	4ee-
.	.	8f	8dd
8A-	8c	4.r	8.r
8G	8B-	.	.
.	.	.	16dd
8F	8A-	.	16ee-
.	.	.	16ff
=5	=5	=5	=5
4E-	8G	8.ee-	8.gg
.	8b-	.	.
.	.	32dd	32ff
.	.	32ee-	32gg
8BB-	8d	8ff	8aa-
8r	8r	8r	8r
8AA-	8b-	8dd	8ff
8r	8r	8r	8r
=6	=6	=6	=6
4GG	4b-	8.ee-	[12..bb-
.	.	.	96bb-]
.	.	.	32ccc
.	.	16g	32ddd
.	.	.	32eee-
4FF	2B-	4a-	8ddd
.	.	.	16ccc
.	.	.	16bb-
4F	.	4d	8aa-
.	.	.	16gg
.	.	.	16ff
=7	=7	=7	=7
8G	8B-	8e-	8ee-
8G	8B-	8d-	8ee
8A-	8A-	8c	16ff
.	.	.	16gg
8A-	8A-	16cc	16aa-
.	.	16a-	16ff
8B-	8B-	8g	8ee-
8B-	8B-	8f	8dd
=8	=8	=8	=8
4.E-	4B-	4a-	4ff
.	2r	8g	8ee-
8E-	.	4.r	4.r
8G	.	.	.
8B-	.	.	.
=9	=9	=9	=9
2.B	2.d	2.f	8.gg
.	.	.	32ff
.	.	.	32gg
.	.	.	16aa-
.	.	.	16gg
.	.	.	16ccc
.	.	.	16bb
.	.	.	16ddd
.	.	.	16aa-
.	.	.	16gg
.	.	.	16ff
=10	=10	=10	=10
4c	4e-	4g	16ff
.	.	.	16ee-
.	.	.	16dd
.	.	.	16cc
2r	2r	2r	16b
.	.	.	16cc
.	.	.	16b-
.	.	.	16a-
.	.	.	16g
.	.	.	16f
.	.	.	16e-
.	.	.	16d
=11	=11	=11	=11
8E-	8G	8e-	16c
.	.	.	16d
8E-	8G	8e-	16c
.	.	.	16B
8E-	8G	8e-	16c
.	.	.	16d
8E-	8G	8e-	16c
.	.	.	16B
8E-	8G	8e-	16c
.	.	.	16d
8E-	8G	8e-	16c
.	.	.	16B
=12	=12	=12	=12
8E	8G	8B-	16c
.	.	.	16d-
8E	8G	8B-	16c
.	.	.	16B
8E	8G	8B-	16c
.	.	.	16d-
8E	8G	8B-	16c
.	.	.	16B
8E	8G	8B-	16c
.	.	.	16d
8E	8G	8B-	16c
.	.	.	16B-
=13	=13	=13	=13
4F	4F	16B-	16B-
.	.	16A	16A
.	.	16c	16c
.	.	16e	16e
2r	2r	16f	4f
.	.	16f	.
.	.	16f	.
.	.	16f	.
.	.	16f	4r
.	.	16f	.
.	.	16f	.
.	.	16f	.
=14	=14	=14	=14
2.r	8.d	16f	8.b-
.	.	16f	.
.	.	16f	.
.	32c	16f	32a
.	32d	.	32b-
.	8e-	16f	8cc
.	.	16f	.
.	8r	16f	8r
.	.	16f	.
.	8c	16f	8a
.	.	16f	.
.	8r	16f	8r
.	.	16f	.
=15	=15	=15	=15
8.B-	2.r	16f	8.dd
.	.	16f	.
.	.	16f	.
32A	.	16f	32cc
32B-	.	.	32dd
4c	.	16f	8ee-
.	.	16f	.
.	.	16f	8r
.	.	16f	.
8A	.	16f	8cc
.	.	16f	.
8r	.	16f	8r
.	.	16f	.
=16	=16	=16	=16
16B-	16d	16f	8.ff
16B-	16d	16f	.
16B-	16d	16f	.
16B-	16d	16f	32ff
.	.	.	32gg
16B	16d	16f	4aa-
16B	16d	16f	.
16B	16d	16f	.
16B	16d	16f	.
16c	16c	16e-	32gg
.	.	.	32ee-
16c	16c	16e-	32dd
.	.	.	32cc
16A	16c	16e-	32gg
.	.	.	32ee-
16A	16c	16e-	32dd
.	.	.	32cc
=17	=17	=17	=17
16B-	16B-	16d	32ff
.	.	.	32dd
16B-	16B-	16d	32cc
.	.	.	32b-
16E-	16E-	32g	32ee-
.	.	32e-	32cc
16E-	16E-	32g	32ee-
.	.	32e-	32cc
8F	8F	8d	8b-
8r	8r	8r	8r
8F	8e-	8c	8a
8r	8r	8r	8r
=18	=18	=18	=18
2.r	8.d	16f	8.b-
.	.	16f	.
.	.	16f	.
.	32c	16f	32a
.	32d	.	32b-
.	8e-	16f	8cc
.	.	16f	.
.	8r	16f	8r
.	.	16f	.
.	8c	16f	8a
.	.	16f	.
.	8r	16f	8r
.	.	16f	.
=19	=19	=19	=19
8.B-	2.r	16f	8.dd-
.	.	16f	.
.	.	16f	.
32A	.	16f	32cc
32B-	.	.	32dd-
8c	.	16f	8ee-
.	.	16f	.
8r	.	16f	8r
.	.	16f	.
8A	.	16f	8cc
.	.	16f	.
8r	.	16f	8r
.	.	16f	.
=20	=20	=20	=20
16B-	16d-	8.dd-	8.ff
16B-	16d-	.	.
16B-	16d-	.	.
16B-	16d-	32cc	32ee-
.	.	32dd-	32ff
16E-	16B-	4ee-	4gg-
16E-	16B-	.	.
16E-	16B-	.	.
16E-	16B-	.	.
16A-	16c	8g-	8ee-
16A-	16c	.	.
16A-	16c	8e-	8cc
16A-	16c	.	.
=21	=21	=21	=21
16F	16d-	4.d-	8.aa-
16F	16d-	.	.
16F	16d-	.	.
16F	16d-	.	32gg-
.	.	.	32aa-
16G-	16B-	.	8bb-
16G-	16B-	.	.
16G-	16B-	8b-	8gg-
16G-	16B-	.	.
16A-	16c	8g-	8ee-
16A-	16c	.	.
16A-	16e-	8e-	8cc
16A-	16e-	.	.
=22	=22	=22	=22
16D-	4d-	4f	4dd-
16E-	.	.	.
16D-	.	.	.
16C	.	.	.
16D-	2r	2r	2r
16E-	.	.	.
16D-	.	.	.
16C	.	.	.
16D-	.	.	.
16E-	.	.	.
16D-	.	.	.
16C	.	.	.
=23	=23	=23	=23
16BB-	2.f	2.a-	2.dd
16C-	.	.	.
16BB-	.	.	.
16AA	.	.	.
16BB-	.	.	.
16C-	.	.	.
16BB-	.	.	.
16AA	.	.	.
16BB-	.	.	.
16AA-	.	.	.
16GG-	.	.	.
16FF	.	.	.
=24	=24	=24	=24
16EE-	2g-	2.b-	2.ee-
16FF	.	.	.
16EE-	.	.	.
16DD	.	.	.
16EE-	.	.	.
16FF	.	.	.
16EE-	.	.	.
16DD	.	.	.
16EE-	4g	.	.
16FF-	.	.	.
16EE-	.	.	.
16DD-	.	.	.
=25	=25	=25	=25
4CC	4a-	2e-	16ee-
.	.	.	16ff
.	.	.	16ee-
.	.	.	16dd
4C	4a	.	16ee-
.	.	.	16gg-
.	.	.	16ff
.	.	.	16ee-
4D	16b-	8f	16dd
.	16a-	.	16ccc
.	16g	8r	16bb-
.	16f	.	16aa-
=26	=26	=26	=26
4E-	4e-	8.ee-	8.gg
.	.	32dd	32ff
.	.	32ee-	32gg
8BB-	8d	8ff	8aa-
8r	8r	8r	8r
8A-	8b-	8dd	8ff
8r	8r	8r	8r
=27	=27	=27	=27
4G	4b-	8.ee-	8.bb-
.	.	16g	16eee-
4F	4B-	2a-	8ddd
.	.	.	16ccc
.	.	.	16bb-
4B-	4d	.	8aa-
.	.	.	16gg
.	.	.	16ff
=28	=28	=28	=28
8c	8e-	8g	4ee-
8c	8e-	8g	.
8A-	8c	8cc	4ff
8A-	8c	8cc	.
8F	8A-	8cc	8.aa-
8F	8A-	8cc	.
.	.	.	32bb-
.	.	.	32ccc
=29	=29	=29	=29
4.B-	4.B-	4g	4ee-
.	.	8f	8dd
8A-	8c	4.r	8.r
8G	8B-	.	.
.	.	.	16dd
8F	8A-	.	16ee-
.	.	.	16ff
=30	=30	=30	=30
4E-	8G	8.ee-	8.gg
.	8b-	.	.
.	.	32dd	32ff
.	.	32ee-	32gg
8BB-	8d	8ff	8aa-
8r	8r	8r	8r
8AA-	8b-	8dd	8ff
8r	8r	8r	8r
=31	=31	=31	=31
4GG	4b-	8.ee-	[12..bb-
.	.	.	96bb-]
.	.	.	32ccc
.	.	16g	32ddd
.	.	.	32eee-
8FF	8B-	8a-	8ddd
4.r	4.r	4.r	16ccc
.	.	.	16bb-
.	.	.	8aa-
.	.	.	8r
=32	=32	=32	=32
4E-	4g	4ee-	8bb-
.	.	.	32ccc
.	.	.	32ddd
.	.	.	32eee-
.	.	.	32fff
8F	8a-	8dd	16ggg
.	.	.	16fff
4.r	4.r	4.r	16aaa-
.	.	.	16fff
.	.	.	8ddd
.	.	.	8r
=33	=33	=33	=33
16G	16B-	16ee-	[12..eee-
16G	16B-	16ee-	.
16G	16B-	16ee-	.
.	.	.	96eee-]
.	.	.	32fff
16G	16B-	16ee-	32ggg
.	.	.	32aaa-
16G	16B-	16ee-	8bbb-
16G	16B-	16ee-	.
16G	16B-	16ee-	8bbb-
16G	16B-	16ee-	.
16G	16e-	16ee-	8bbb
16G	16e-	16ee-	.
16G	16e-	16ee-	8bbb
16G	16e-	16ee-	.
=34	=34	=34	=34
8A-	8e-	8ee-	8cccc
8r	8r	8r	8r
8AA-	8c	8e-	16cc
.	.	.	32dd
.	.	.	32ee
4.r	4.r	4.r	32ff
.	.	.	32gg
.	.	.	32aa-
.	.	.	32bb-
.	.	.	16ccc
.	.	.	16gg
.	.	.	16aa-
.	.	.	16ff
=35	=35	=35	=35
2.BB-	2e-	2g	16ee-
.	.	.	16bb-
.	.	.	16gg
.	.	.	16ee-
.	.	.	16b-
.	.	.	16g
.	.	.	16e-
.	.	.	16B-
.	4d	4f	16A-
.	.	.	16a-
.	.	.	16f
.	.	.	16d
=36	=36	=36	=36
4E-	4e-	16e-	4e-
.	.	16e-	.
.	.	16e-	.
.	.	16e-	.
2r	2r	16e-	2r
.	.	16e-	.
.	.	16e-	.
.	.	16e-	.
.	.	16e-	.
.	.	16e-	.
.	.	16e-	.
.	.	16e-	.
=37	=37	=37	=37
2.r	8.c	16e-	8.ee-
.	.	16e-	.
.	.	16e-	.
.	32d	16e-	32ff
.	32c	.	32ee-
.	8B-	16e-	8dd
.	.	16e-	.
.	8r	16e-	8r
.	.	16e-	.
.	8A-	16e-	8cc
.	.	16e-	.
.	8r	16e-	8r
.	.	16e-	.
=38	=38	=38	=38
8.G	2.r	16e-	8.b-
.	.	16e-	.
.	.	16e-	.
32A-	.	16e-	32cc
32G	.	.	32b-
8F	.	16e-	8a-
.	.	16e-	.
8r	.	16e-	8r
.	.	16e-	.
8E-	.	16e-	8g
.	.	16e-	.
8r	.	16e-	8r
.	.	16e-	.
=39	=39	=39	=39
2AA-	2A-	2.c	16g
.	.	.	16f
.	.	.	16a-
.	.	.	16g
.	.	.	16b-
.	.	.	16a-
.	.	.	16cc
.	.	.	16b-
8AA-	8A-	.	16a-
.	.	.	16g
8AA	8A	.	16f
.	.	.	16e-
=40	=40	=40	=40
4BB-	4B-	16B-	4B-
.	.	16b-	.
.	.	16b-	.
.	.	16b-	.
2r	2r	16b-	2r
.	.	16b-	.
.	.	16b-	.
.	.	16b-	.
.	.	16b-	.
.	.	16b-	.
.	.	16b-	.
.	.	16b-	.
=41	=41	=41	=41
2.r	8.g	16b-	8.ee-
.	.	16b-	.
.	.	16b-	.
.	32f	16b-	32dd
.	32g	.	32ee-
.	8a-	16b-	8ff
.	.	16b-	.
.	8r	16b-	8r
.	.	16b-	.
.	8f	16b-	8dd
.	.	16b-	.
.	8r	16b-	8r
.	.	16b-	.
=42	=42	=42	=42
8.e-	2.r	16b-	8.gg
.	.	16b-	.
.	.	16b-	.
32d	.	16b-	32ff
32e-	.	.	32gg
8f	.	16b-	8aa-
.	.	16b-	.
8r	.	16b-	8r
.	.	16b-	.
8d	.	16b-	8ff
.	.	16b-	.
8r	.	16b-	8r
.	.	16b-	.
=43	=43	=43	=43
16G	16e-	16e-	8.bb-
16G	16e-	16e-	.
16G	16e-	16e-	.
16G	16e-	16e-	32bb-
.	.	.	32ccc
16G	16b-	16e	4ddd-
16G	16b-	16e	.
16G	16b-	16e	.
16G	16b-	16e	.
16A-	16a-	16f	32ccc
.	.	.	32aa-
16A-	16a-	16f	32gg
.	.	.	32ff
16A-	16a-	16f	32ee
.	.	.	32ff
16A-	16a-	16f	32aa-
.	.	.	32ff
=44	=44	=44	=44
16B-	16e-	16g	32ee-
.	.	.	32ff
16B-	16e-	16g	32gg
.	.	.	32aa-
16B-	16e-	16g	32bb-
.	.	.	32ccc
16B-	16e-	16g	32bb-
.	.	.	32ccc
8B-	8e-	8g	8bb-
8r	8r	8r	8r
8B-	8f	8a-	8dd
8r	8r	8r	8r
=45	=45	=45	=45
2.r	8.g	16b-	8.ee-
.	.	16b-	.
.	.	16b-	.
.	32f	16b-	32dd
.	32g	.	32ee-
.	8a-	16b-	8ff
.	.	16b-	.
.	8r	16b-	8r
.	.	16b-	.
.	8f	16b-	8dd
.	.	16b-	.
.	8r	16b-	8r
.	.	16b-	.
=46	=46	=46	=46
8.e-	2.r	16b-	8.gg-
.	.	16b-	.
.	.	16b-	.
32d	.	16b-	32ff
32e-	.	.	32gg-
8f	.	16b-	8aa-
.	.	16b-	.
8r	.	16b-	8r
.	.	16b-	.
8d	.	16b-	8ff
.	.	16b-	.
8r	.	16b-	8r
.	.	16b-	.
=47	=47	=47	=47
16e-	16g-	8.gg-	8.bb-
16e-	16g-	.	.
16e-	16g-	.	.
16e-	16g-	32ff	32aa-
.	.	32gg-	32bb-
16A-	16e-	4aa-	4ccc-
16A-	16e-	.	.
16A-	16e-	.	.
16A-	16e-	.	.
16d-	16f	8cc-	8aa-
16d-	16f	.	.
16d-	16f	8a-	8ff
16d-	16f	.	.
=48	=48	=48	=48
16B-	16g-	4.g-	8.ddd-
16B-	16g-	.	.
16B-	16g-	.	.
16B-	16g-	.	32ccc-
.	.	.	32ddd-
16c-	16e-	.	8eee-
16c-	16e-	.	.
16c-	16e-	8ee-	8ccc-
16c-	16e-	.	.
16d-	16f	8cc-	8aa-
16d-	16f	.	.
16d-	16a-	8a-	8ff
16d-	16a-	.	.
=49	=49	=49	=49
16G-	4g-	2b-	2gg-
16A-	.	.	.
16G-	.	.	.
16F	.	.	.
16G-	4d-	.	.
16A-	.	.	.
16G-	.	.	.
16F	.	.	.
16G-	4d-	4b-	4ff-
16F	.	.	.
16G-	.	.	.
16G	.	.	.
=50	=50	=50	=50
16A-	2c-	2cc-	2ee-
16B-	.	.	.
16A-	.	.	.
16G	.	.	.
16A-	.	.	.
16B-	.	.	.
16A-	.	.	.
16G	.	.	.
16A-	4e-	4cc	4gg-
16G	.	.	.
16A-	.	.	.
16A	.	.	.
=51	=51	=51	=51
16B-	4d	4dd	4ff
16c-	.	.	.
16B-	.	.	.
16A	.	.	.
16B-	4d	4ff	4aa-
16c-	.	.	.
16B-	.	.	.
16A	.	.	.
16B-	4e-	4ee-	4gg-
16c-	.	.	.
16B-	.	.	.
16A	.	.	.
=52	=52	=52	=52
2B-	2B-	16dd	16ff
.	.	16ee-	16gg-
.	.	16dd	16ff
.	.	16cc#	16ee
.	.	16dd	16ff
.	.	16ee	16gg
.	.	16ff	16aa-
.	.	16ee	16gg
4d	4b-	16ff	16aa-
.	.	16aa-	16ccc
.	.	16gg	16bb-
.	.	16ff	16aa-
=53	=53	=53	=53
4e-	4e-	8.ee-	8.gg
.	.	32dd	32ff
.	.	32ee-	32gg
8B-	8d	8ff	8aa-
8r	8r	8r	8r
8A-	8b-	8dd	8ff
8r	8r	8r	8r
=54	=54	=54	=54
4G	4b-	8.ee-	24b-
.	.	.	24dd
.	.	.	24ee-
.	.	.	24gg
.	.	.	24bb-
.	.	16g	.
.	.	.	24eee-
4F	4B-	2a-	8ddd
.	.	.	16ccc
.	.	.	16bb-
4B-	4d	.	8aa-
.	.	.	16gg
.	.	.	16ff
=55	=55	=55	=55
8c	8e-	8g	4ee-
8c	8e-	8g	.
8A-	8c	8cc	4ff
8A-	8c	8cc	.
8F	8A-	8cc	8.aa-
8F	8A-	8cc	.
.	.	.	32bb-
.	.	.	32ccc
=56	=56	=56	=56
4.B-	4.B-	4g	4ee-
.	.	8f	8dd
8A-	8c	4.r	8.r
8G	8B-	.	.
.	.	.	16dd
8F	8A-	.	16ee-
.	.	.	16ff
=57	=57	=57	=57
4E-	8G	8.ee-	8.gg
.	8b-	.	.
.	.	32dd	32ff
.	.	32ee-	32gg
8BB-	8d	8ff	8aa-
8r	8r	8r	8r
8AA-	8b-	8dd	8ff
8r	8r	8r	8r
=58	=58	=58	=58
4GG	4b-	8.ee-	32ee-
.	.	.	32ff
.	.	.	32gg
.	.	.	32aa-
.	.	.	32bb-
.	.	.	32ccc
.	.	16g	32ddd
.	.	.	32eee-
4FF	2B-	4a-	8ddd
.	.	.	16ccc
.	.	.	16bb-
4F	.	4d	8aa-
.	.	.	16gg
.	.	.	16ff
=59	=59	=59	=59
8G	8B-	8e-	8ee-
8G	8B-	8d-	8ee
8A-	8A-	8c	16ff
.	.	.	16gg
8A-	8A-	16cc	16aa-
.	.	16a-	16ff
8B-	8B-	8g	8ee-
8B-	8B-	8f	8dd
=60	=60	=60	=60
16E-	4e-	4e-	4ee-
16F	.	.	.
16E-	.	.	.
16D	.	.	.
4E-	8r	8r	8r
.	8A-	8a-	8cc
4r	8B-	8g	8b-
.	8d	8f	8a-
=61	=61	=61	=61
16E-	4e-	4e-	4g
16F	.	.	.
16E-	.	.	.
16D	.	.	.
4E-	8r	8r	8r
.	8A-	8c	8a-
4r	8B-	8B-	8g
.	8d	8A-	8f
=62	=62	=62	=62
16EE-	8e-	8G	8e-
16FF	.	.	.
16EE-	4.r	8r	8r
16DD	.	.	.
16EE-	.	8B-	8g
16FF	.	.	.
16EE-	.	8r	8r
16DD	.	.	.
16EE-	8B-	8g	8b-
16FF	.	.	.
16EE-	8r	8r	8r
16DD	.	.	.
=63	=63	=63	=63
8EE-	8G	8e-	8ee-
2r	2r	2r	3..r
8r	8r	8r	.
.	.	.	24r
==	==	==	==
*-	*-	*-	*-
!!!RWG1: This file contains only pitch and duration data.
!!!RWG2: Transposing instruments are not transposed.
!!!RWG3: Spines may have incompatible meters.
!!!RWG4: Durations of rests and tied notes may be interpreted.
!!!RWG: Key is interpreted using the Humdrum key tool.
!!!GTL: 6 Quators ("Jungfernquartette")
!!!AFT: stage1
!!!END: 1997/04/15
!!!KEY: 232275835
!!!EMD: Converted from MuseData to Humdrum Dec 16, 2000, by Andreas Kornstaedt using muse2kern.
!!!EMD: Manual editing by Craig Sapp, Nov 2001
